media/pieces/light_queen.svg

<?xml version="1.0" encoding="UTF-8" standalone="no"?>
<!-- Created with Inkscape (http://www.inkscape.org/) -->

<svg
   width="400"
   height="400"
   viewBox="0 0 105.83333 105.83333"
   version="1.1"
   id="svg1404"
   xml:space="preserve"
   inkscape:version="1.2.2 (732a01da63, 2022-12-09)"
   sodipodi:docname="light_queen.svg"
   xmlns:inkscape="http://www.inkscape.org/namespaces/inkscape"
   xmlns:sodipodi="http://sodipodi.sourceforge.net/DTD/sodipodi-0.dtd"
   xmlns="http://www.w3.org/2000/svg"
   xmlns:svg="http://www.w3.org/2000/svg"><sodipodi:namedview
     id="namedview1406"
     pagecolor="#505050"
     bordercolor="#ffffff"
     borderopacity="1"
     inkscape:showpageshadow="0"
     inkscape:pageopacity="0"
     inkscape:pagecheckerboard="1"
     inkscape:deskcolor="#505050"
     inkscape:document-units="mm"
     showgrid="false"
     inkscape:zoom="1.0129245"
     inkscape:cx="309.00625"
     inkscape:cy="264.08681"
     inkscape:window-width="1920"
     inkscape:window-height="991"
     inkscape:window-x="-9"
     inkscape:window-y="-9"
     inkscape:window-maximized="1"
     inkscape:current-layer="layer1" /><defs
     id="defs1401" /><g
     inkscape:label="Layer 1"
     inkscape:groupmode="layer"
     id="layer1"><g
       style="fill:#ffffff;stroke:#000000;stroke-width:1.5;stroke-linejoin:round"
       id="g2194"
       transform="matrix(2.4096874,0,0,2.4096874,-1.3013002,-1.4643055)"><path
         d="m 9,26 c 8.5,-1.5 21,-1.5 27,0 L 38.5,13.5 31,25 30.7,10.9 25.5,24.5 22.5,10 19.5,24.5 14.3,10.9 14,25 6.5,13.5 Z"
         id="path2176" /><path
         d="m 9,26 c 0,2 1.5,2 2.5,4 1,1.5 1,1 0.5,3.5 -1.5,1 -1,2.5 -1,2.5 -1.5,1.5 0,2.5 0,2.5 6.5,1 16.5,1 23,0 0,0 1.5,-1 0,-2.5 0,0 0.5,-1.5 -1,-2.5 -0.5,-2.5 -0.5,-2 0.5,-3.5 1,-2 2.5,-2 2.5,-4 -8.5,-1.5 -18.5,-1.5 -27,0 z"
         id="path2178" /><path
         d="M 11.5,30 C 15,29 30,29 33.5,30"
         style="fill:none"
         id="path2180" /><path
         d="m 12,33.5 c 6,-1 15,-1 21,0"
         style="fill:none"
         id="path2182" /><circle
         cx="6"
         cy="12"
         r="2"
         id="circle2184" /><circle
         cx="14"
         cy="9"
         r="2"
         id="circle2186" /><circle
         cx="22.5"
         cy="8"
         r="2"
         id="circle2188" /><circle
         cx="31"
         cy="9"
         r="2"
         id="circle2190" /><circle
         cx="39"
         cy="12"
         r="2"
         id="circle2192" /></g></g></svg>

<?xml version="1.0" encoding="UTF-8" standalone="no"?>
<!DOCTYPE svg PUBLIC "-//W3C//DTD SVG 1.1//EN" "http://www.w3.org/Graphics/SVG/1.1/DTD/svg11.dtd">
<svg xmlns="http://www.w3.org/2000/svg" version="1.1" width="45" height="45">
  <g style="fill:#ffffff;stroke:#000000;stroke-width:1.5;stroke-linejoin:round">
    <path d="M 9,26 C 17.5,24.5 30,24.5 36,26 L 38.5,13.5 L 31,25 L 30.7,10.9 L 25.5,24.5 L 22.5,10 L 19.5,24.5 L 14.3,10.9 L 14,25 L 6.5,13.5 L 9,26 z"/>
    <path d="M 9,26 C 9,28 10.5,28 11.5,30 C 12.5,31.5 12.5,31 12,33.5 C 10.5,34.5 11,36 11,36 C 9.5,37.5 11,38.5 11,38.5 C 17.5,39.5 27.5,39.5 34,38.5 C 34,38.5 35.5,37.5 34,36 C 34,36 34.5,34.5 33,33.5 C 32.5,31 32.5,31.5 33.5,30 C 34.5,28 36,28 36,26 C 27.5,24.5 17.5,24.5 9,26 z"/>
    <path d="M 11.5,30 C 15,29 30,29 33.5,30" style="fill:none"/>
    <path d="M 12,33.5 C 18,32.5 27,32.5 33,33.5" style="fill:none"/>
    <circle cx="6" cy="12" r="2" />
    <circle cx="14" cy="9" r="2" />
    <circle cx="22.5" cy="8" r="2" />
    <circle cx="31" cy="9" r="2" />
    <circle cx="39" cy="12" r="2" />
  </g>
</svg>
